src/images/icons/vendor.svg

<svg width="22" height="22" viewBox="0 0 22 22" fill="none" xmlns="http://www.w3.org/2000/svg">
<path d="M6.7508 5V4.2C6.7508 2.43 6.7508 1 9.9508 1H11.5508C14.7508 1 14.7508 2.43 14.7508 4.2V5M12.7508 13.02V12C12.7508 11 12.7508 11 11.7508 11H9.7508C8.7508 11 8.7508 11 8.7508 12V13.03M12.7508 13.02C12.7508 14.11 12.7408 15 10.7508 15C8.7708 15 8.7508 14.12 8.7508 13.03M12.7508 13.02C15.515 12.6759 18.1469 11.6369 20.4008 10M8.7508 13.03C6.1608 12.74 3.6208 11.81 1.3708 10.27M6.7508 21H14.7508C18.7708 21 19.4908 19.39 19.7008 17.43L20.4508 9.43C20.7208 6.99 20.0208 5 15.7508 5H5.7508C1.4808 5 0.780803 6.99 1.0508 9.43L1.8008 17.43C2.0108 19.39 2.7308 21 6.7508 21Z" stroke="white" stroke-width="2" stroke-miterlimit="10" stroke-linecap="round" stroke-linejoin="round"/>
</svg>

<svg width="22" height="22" fill="none" xmlns="http://www.w3.org/2000/svg"><path d="M6.75 5v-.8c0-1.77 0-3.2 3.2-3.2h1.6c3.2 0 3.2 1.43 3.2 3.2V5m-2 8.02V12c0-1 0-1-1-1h-2c-1 0-1 0-1 1v1.03m4-.01c0 1.09-.01 1.98-2 1.98-1.98 0-2-.88-2-1.97m4-.01A16.483 16.483 0 0 0 20.4 10M8.75 13.03c-2.59-.29-5.13-1.22-7.38-2.76M6.75 21h8c4.02 0 4.74-1.61 4.95-3.57l.75-8c.27-2.44-.43-4.43-4.7-4.43h-10C1.48 5 .78 6.99 1.05 9.43l.75 8c.21 1.96.93 3.57 4.95 3.57Z" stroke="#fff" stroke-width="2" stroke-miterlimit="10" stroke-linecap="round" stroke-linejoin="round"/></svg>
